icons/svg/history.svg

﻿<?xml version="1.0" encoding="utf-8"?>
<!DOCTYPE svg PUBLIC "-//W3C//DTD SVG 1.1//EN" "http://www.w3.org/Graphics/SVG/1.1/DTD/svg11.dtd">
<svg xmlns="http://www.w3.org/2000/svg" xmlns:xlink="http://www.w3.org/1999/xlink" version="1.1" baseProfile="full" width="24" height="24" viewBox="0 0 24.00 24.00" enable-background="new 0 0 24.00 24.00" xml:space="preserve">
	<path fill="#000000" fill-opacity="0.901961" stroke-width="0.2" stroke-linejoin="round" d="M 10.9994,6.99805L 10.9994,12.1121L 15.7144,14.9041L 16.4854,13.619L 12.4994,11.248L 12.4994,6.99805M 12.4944,1.99805C 8.96838,1.99805 5.9054,3.92004 4.27039,6.77002L 1.99939,4.49805L 1.99939,10.998L 8.49939,10.998L 5.74738,8.24603C 6.95639,5.73303 9.5224,3.99805 12.4994,3.99805C 16.6434,3.99805 19.9994,7.35602 19.9994,11.498C 19.9994,15.6401 16.6434,18.998 12.4994,18.998C 9.23438,18.998 6.46539,16.9091 5.43539,13.998L 3.34238,13.998C 4.43939,18.03 8.11139,20.998 12.4944,20.998C 17.7444,20.998 21.9994,16.7451 21.9994,11.498C 21.9994,6.25104 17.7444,1.99805 12.4944,1.99805 Z "/>
</svg>

<svg xmlns="http://www.w3.org/2000/svg" version="1.1" baseProfile="full" width="24" height="24" viewBox="0 0 24.00 24.00" xml:space="preserve"><path fill="#000" fill-opacity=".902" stroke-width=".2" stroke-linejoin="round" d="M11 6.998v5.114l4.714 2.792.77-1.285-3.985-2.372v-4.25m-.006-5c-3.526 0-6.59 1.922-8.224 4.772L2 4.498v6.5h6.5L5.746 8.246c1.21-2.513 3.775-4.248 6.752-4.248 4.143 0 7.5 3.358 7.5 7.5 0 4.142-3.357 7.5-7.5 7.5-3.266 0-6.035-2.09-7.065-5H3.342c1.097 4.032 4.77 7 9.152 7 5.25 0 9.505-4.253 9.505-9.5s-4.256-9.5-9.506-9.5z"/></svg>
